X:95
T:Devil among the Taylors, The
M:6/8
L:1/8
B:Thompson's Compleat Collection of 200 Favourite Country Dances, vol. 3 (London, 1773)
Z:Transcribed and edited by Flynn Titford-Mock, 2007
Z:abc's:AK/Fiddler's Companion
K:A
AcA cAc | ece aea | faf dfd | eae cec | dfd BdB | cec AcA | BdB GBG | A2A [A,3A3] :|
|: efe efe | ded ded | cdc cdc | BcB BcB | efe efe | ded ded | cdc cdc | {c}(B3 B3) |
AcA cAc | ece aea | faf dfd | eae cec | dfd BdB | cec AcA | BdB GBG | A3 [A,3A3] :|

